X: 27143
T: Miss McGuinness
R: reel
M: 4/4
K: Gmajor
B|AD D/D/D ADFA|ABdg fedB|AD D/D/D ADFA|BdAF FEEB|
AD D/D/D ADFA|ABdg fedB|AD D/D/D ADFA|BdAF FEE2||
e3f d3 c|BdAd BdAd|e3f d3 c|BAdA FE3|
eAef d3 c|BdAd BdAd|f3d efed|BABc dcdB||

